X:1
T:Basket of Eggs
M:4/4
L:1/8
K:Bb
 BB Bc d2 d2| Bc BG F2 DD| F2 F2G-FD-C| D2G-F G3 G| d3 d c2 d2|B-cB-G F2 DD|\
 F2 F2G-FD-C| D2G-F G4| GG GA B2B-c| d2d-e f2 d2| BB B2 c3 B| c2B-c d3 d|\
 dd d2 c2 d2| BcB-GG-F DD| F2 F2G-FD-C| D2G-F G4|
